Newaita-dark/actions/22/draw-triangle2.svg

<svg height="22" viewBox="0 0 22 22" width="22" xmlns="http://www.w3.org/2000/svg"><path d="m18.1875 11.042969c-.015625-.308594-.1875-.589844-.457031-.742188l-12.734375-7.277343c-.277344-.160157-.625-.15625-.902344.003906s-.449219.460937-.449219.78125v14.554687c0 .324219.171875.621094.449219.785157.277344.160156.625.160156.902344 0l12.734375-7.277344c.296875-.167969.472656-.488282.457031-.828125zm-2.730469.042969-10.003906 5.71875v-11.433594zm0 0" fill="#e0e0e0"/></svg>

<?xml version="1.0" encoding="UTF-8"?>
<svg xmlns="http://www.w3.org/2000/svg" xmlns:xlink="http://www.w3.org/1999/xlink" width="22px" height="22px" viewBox="0 0 22 22" version="1.1">
<g id="surface1">
<path style=" stroke:none;fill-rule:nonzero;fill:rgb(87.843138%,87.843138%,87.843138%);fill-opacity:1;" d="M 18.1875 11.042969 C 18.171875 10.734375 18 10.453125 17.730469 10.300781 L 4.996094 3.023438 C 4.71875 2.863281 4.371094 2.867188 4.09375 3.027344 C 3.816406 3.1875 3.644531 3.488281 3.644531 3.808594 L 3.644531 18.363281 C 3.644531 18.6875 3.816406 18.984375 4.09375 19.148438 C 4.371094 19.308594 4.71875 19.308594 4.996094 19.148438 L 17.730469 11.871094 C 18.027344 11.703125 18.203125 11.382812 18.1875 11.042969 Z M 15.457031 11.085938 L 5.453125 16.804688 L 5.453125 5.371094 Z M 15.457031 11.085938 "/>
</g>
</svg>
